packages/components/bolt-icons/src/svgs/product/product/crm/co-browse.svg

<?xml version="1.0" encoding="utf-8"?>
<!-- Generator: Adobe Illustrator 24.0.3, SVG Export Plug-In . SVG Version: 6.00 Build 0)  -->
<svg version="1.1" id="ba8096cd-6223-4198-853f-378abef883d5"
	 xmlns="http://www.w3.org/2000/svg" xmlns:xlink="http://www.w3.org/1999/xlink" x="0px" y="0px" viewBox="0 0 32 32"
	 enable-background="new 0 0 32 32" xml:space="preserve">
<path id="e2335f47-4908-4a8c-922c-9f4c39b94a17" fill-rule="evenodd" clip-rule="evenodd" d="M30,12H8v-2c0-1.1,0.9-2,2-2h18
	c1.1,0,2,0.9,2,2V12z M30,28c0,1.1-0.9,2-2,2H10c-1.1,0-2-0.9-2-2V14h22V28z M28,6H10c-2.2,0-4,1.8-4,4v18c0,2.2,1.8,4,4,4h18
	c2.2,0,4-1.8,4-4V10C32,7.8,30.2,6,28,6z M4,2h18c1.1,0,2,0.9,2,2h2c0-2.2-1.8-4-4-4H4C1.8,0,0,1.8,0,4v18c0,2.2,1.8,4,4,4v-2
	c-1.1,0-2-0.9-2-2V8h2V6H2V4C2,2.9,2.9,2,4,2z"/>
</svg>

<svg id="ba8096cd-6223-4198-853f-378abef883d5" data-name="Layer 1" xmlns="http://www.w3.org/2000/svg" viewBox="0 0 32 32"><title>co-browse</title><path id="e2335f47-4908-4a8c-922c-9f4c39b94a17" data-name="Page-1" d="M30,12H8V10a2,2,0,0,1,2-2H28a2,2,0,0,1,2,2Zm0,16a2,2,0,0,1-2,2H10a2,2,0,0,1-2-2V14H30ZM28,6H10a4,4,0,0,0-4,4V28a4,4,0,0,0,4,4H28a4,4,0,0,0,4-4V10a4,4,0,0,0-4-4ZM4,2H22a2,2,0,0,1,2,2h2a4,4,0,0,0-4-4H4A4,4,0,0,0,0,4V22a4,4,0,0,0,4,4V24a2,2,0,0,1-2-2V8H4V6H2V4A2,2,0,0,1,4,2Z" fill="#1f2555" fill-rule="evenodd"/></svg>
